X:19
T:Lady Margerie
Z:Jack Campin, http://www.campin.me.uk/
F:Jack Campin's Nine-Note Tunebook
% last edit 03-02-2013
S:Blaikie MS (NLS MS.1578) p20, Blaikie #58
M:3/4
L:1/8
Q:1/4=100
K:DMin
DE|F2  ED FG|A2 F2 ED|D2 D2 F>G|A4
G2|A=B c2 BA|d2 DE FG|AG F2 E2 |D4|]

